!!!!SEGMENT: pl-kk--kk-i-40--005-002_flori-georg--missa-et-in-terra.krn
!!!cenid: 16xx:1294
!!!COM: Flori, Georg
!!!COM-rismID: pe30007781
!!!CDT: ~1558-~1594
!!!CNT: Dutch
!!!OPR: Missa
!!!OTL: Et in terra
!!!OMV: 002
!!!PDT:
!!!AGN: Sacred; Mass
!!!SMS-siglum: PL-Kk
!!!SMS-shelfmark: Kk.I.40
!!!SMS-shelfwork: 005-002 M
!!!SMS-variant:
!!!SMS-altvar:
!!!NIFC-rismSourceID: 1001154491
!!!NIFC-islandoraID: pl-kk:2717
!!!URL-pdf-islandora: https://repozytorium.nifc.pl/islandora/object/pl-kk%3A2717/datastream/PDF/view
!!!URL-scan: https://polish.musicsources.pl/pl/lokalizacje/galeria/rekopisy/6010 @EN{Scan on Polish Music Sources Website} @PL{Skany w portalu Dziedzictwo Muzyki Polskiej w otwartym dostępie}
!!!ONB-nifc: UWAGA: części Mszy: 1. Kyrie, 2. Et in terra, 3. Sanctus, 4. Agnus Dei. Skan 0008-0009
!!!AIN: 1 tenor
!!!key:
**kern	**text
*Itenor	*
*I"[Tenore]	*
*clefC4	*
*k[b-]	*
*g:	*
*M2/1	*
*met(c|)	*
=1-	=1-
!LO:TX:t=P:problem=kreska pseudotaktowa	!
00r	.
=2-	=2-
.	.
=3-	=3-
2r	.
*2\right	*
2A\	Bo-
2D/	-nae
2.F/	Vo-
=4-	=4-
4B-/	-lun-
!LO:TX:t=P:problem=kreska pseudotaktowa	!
2d\	-ta-
2G,</	-tis
2.d\	Et
=5-	=5-
4A/	in
4c\	ter-
!LO:TX:t=P:problem=kreska pseudotaktowa	!
4d\	-ra
2A,>\	pax
!LO:TX:t=P:problem=kreska pseudotaktowa	!
2A\	ho-
!LO:LB:g=original	!
=6-	=6-
2c\	-mi-
!LO:TX:t=P:problem=kreska pseudotaktowa	!
2G/	-ni-
2A,<\	-b(us)
1A\	bo-
=7-	=7-
!LO:TX:t=P:problem=kreska pseudotaktowa	!
2D/	-nae
2.F/	Vo-
4G/	-lun-
=8-	=8-
1A	-ta-
2D,</	-tis
2d\	Lau-
=9-	=9-
2c\	-da-
!LO:TX:t=P:problem=kreska pseudotaktowa	!
2B-\	-m(us)
2A,>\	Te
*	*ij
2D/	Lau-
=10-	=10-
2G/	-da-
2D/	-m(us)
!LO:TX:t=P:problem=kreska pseudotaktowa	!
1A	Te
*	*Xij
=11-	=11-
0r	.
=12-	=12-
2r	.
!LO:TX:t=P:problem=kreska pseudotaktowa	!
2G/	be-
2D/	-ne-
2.F/	-di-
=13-	=13-
4F/	-ci-
!LO:TX:t=P:problem=kreska pseudotaktowa	!
2C/	-mus
2D,</	Te
2d\	a-
=14-	=14-
1A	-do-
2.F/	-ra-
4F/	-m(us)
=15-	=15-
2C,</	Te
2d\	glo-
2G/	-ri-
2D/	-fi-
=16-	=16-
2.A\	-ca-
!LO:TX:t=P:problem=kreska pseudotaktowa	!
4A\	-m(us)
!LO:PB:g=original	!
2D,</	Te
4d\	Gra-
!LO:TX:t=P:problem=kreska pseudotaktowa	!
4d\	-ti-
=17-	=17-
2B-,>\	-as
!LO:TX:t=P:problem=kreska pseudotaktowa	!
2c\	a-
2d\	-gi-
!LO:TX:t=P:problem=kreska pseudotaktowa	!
2e-X\	-m(us)
=18-	=18-
*lig	*
1c	Ti-
1d	-bi
*Xlig	*
=19-	=19-
!LO:TX:t=P:problem=kreska pseudotaktowa	!
1G,<	.
!LO:TX:t=P:problem=kreska pseudotaktowa	!
00r	.
=20-	=20-
.	.
=21-	=21-
!LO:TX:t=P:problem=kreska pseudotaktowa	!
1G	Do-
=22-	=22-
4A/	-mi-
4F/	-ne
!LO:TX:t=P:problem=kreska pseudotaktowa	!
2A/	De-
1G	-(us)
=23-	=23-
!LO:TX:t=P:problem=kreska pseudotaktowa	!
1D	Rex
2F/	cae-
2A/	-le-
=24-	=24-
!LO:TX:t=P:problem=kreska pseudotaktowa	!
1G,<	-ſtis
0r	.
=25-	=25-
2rF	.
2.D/	De-
=26-	=26-
4D/	-us
!LO:TX:t=P:problem=kreska pseudotaktowa	!
2G/	Pa-
(<4F/	-ter
4G/	.
4A/	.
4B-/)	.
=27-	=27-
2c\	O-
2d\	-mni-
2G/	-po-
!LO:TX:t=P:problem=kreska pseudotaktowa	!
2A\	-tens
=28-	=28-
2D,</	.
2d\	Do-
4c\	-mi-
4B-\	-ne
!LO:TX:t=P:problem=kreska pseudotaktowa	!
2A\	Fi-
=29-	=29-
2G,</	-li
1G	u-
!LO:TX:t=P:problem=kreska pseudotaktowa	!
2G/	-ni-
!LO:LB:g=original	!
=30-	=30-
2A\	-ge-
2A\	-ni-
!LO:TX:t=P:problem=kreska pseudotaktowa	!
1A	-te
=31-	=31-
2rF	.
2D/	Je-
!LO:TX:t=P:problem=kreska pseudotaktowa	!
1G	-xu
=32-	=32-
1E-X	x-
!LO:TX:t=P:problem=kreska pseudotaktowa	!
1D	-te
=33-	=33-
0r	.
=34-	=34-
2r	.
!LO:TX:t=P:problem=kreska pseudotaktowa	!
2A\	Do-
4d\	-mi-
4c#X\	-ne
2d\	De-
=35-	=35-
!LO:TX:t=P:problem=kreska pseudotaktowa	!
1G	-(us)
1.B-	a-
=36-	=36-
!LO:TX:t=P:problem=kreska pseudotaktowa	!
2F/	-gn(us)
1G	De-
=37-	=37-
!LO:TX:t=P:problem=kreska pseudotaktowa	!
1D,<	-i
0r	.
=38-	=38-
2rF	.
2.d\	Fi-
=39-	=39-
4d\	-li-
!LO:TX:t=P:problem=kreska pseudotaktowa	!
2D/	-(us)
1G	Pa-
=40-	=40-
!LO:TX:t=P:problem=podwójna kreska pseudotaktowa	!
0D;>	-tris.
=41||-	=41||-
*M2/1	*
*met(c|)	*
00r	.
=42-	=42-
.	.
=43-	=43-
!LO:TX:t=P:problem=kreska pseudotaktowa	!
0r	.
=44-	=44-
2rF	.
!LO:TX:t=P:problem=kreska pseudotaktowa	!
2D/	Mi-
2G/	-se-
1E-X/	-re-
=45-	=45-
!LO:TX:t=P:problem=kreska pseudotaktowa	!
2C/	-re
1G	no-
=46-	=46-
!LO:TX:t=P:problem=kreska pseudotaktowa	!
1F,<	-bis
4r	.
4B-\	qui
!LO:TX:t=P:problem=kreska pseudotaktowa	!
2G/	tol-
!LO:LB:g=original	!
=47-	=47-
4d\	-lis
4d\	p(ec-
2c\ny	-ca)-
!LO:TX:t=P:problem=kreska pseudotaktowa	!
1d,<	-ta
=48-	=48-
*lig	*
1G	mun-
1A	-di
*Xlig	*
=49-	=49-
2D,</	.
2.d\	Sus-
4c\	-ci-
!LO:TX:t=P:problem=kreska pseudotaktowa	!
2B-\	-pe
=50-	=50-
2d\	de-
!LO:TX:t=P:problem=kreska pseudotaktowa	!
2G/	-pre-
4.c\	-ca-
8B-\	-ti-
4A/	-o-
!LO:TX:t=P:problem=kreska pseudotaktowa	!
4F/	-(nem)
=51-	=51-
1G	no-
!LO:TX:t=P:problem=kreska pseudotaktowa	!
1A,<	-stra
=52-	=52-
!LO:TX:t=P:problem=kreska pseudotaktowa	!
0rA	.
=53-	=53-
1D	qui
2G/	se-
4F/	-des
!LO:TX:t=P:problem=kreska pseudotaktowa	!
4F/	ad
=54-	=54-
4.B-\	dex-
8A\	-te-
1G	-ram
!LO:TX:t=P:problem=kreska pseudotaktowa	!
2C/	P(a-
=55-	=55-
1.D	-t)ris
!LO:TX:t=P:problem=kreska pseudotaktowa	!
2D/	mi-
=56-	=56-
4G/	-ſe-
2G/	-re-
!LO:TX:t=P:problem=kreska pseudotaktowa	!
4B-\	-re
1F	no-
=57-	=57-
!LO:TX:t=P:problem=kreska pseudotaktowa	!
1B-	-bis
2r	.
!LO:TX:t=P:problem=kreska pseudotaktowa	!
2G/	Quo-
=58-	=58-
4A\	-ni-
4B-\	-am
!LO:TX:t=P:problem=kreska pseudotaktowa	!
2c\	Tu
4B-\	so-
4B-\	-l(us)
2A\	S(an)-
=59-	=59-
!LO:TX:t=P:problem=kreska pseudotaktowa	!
1G,<	-ctus
!LO:LB:g=original	!
1r	.
=60-	=60-
2r	.
!LO:TX:t=P:problem=kreska pseudotaktowa	!
2A\	Tu
2.d\	so-
4c\	-l(us)
=61-	=61-
2d\	D(o)-
2G/	-m(i)-
2A,>/	-n(us)
!LO:TX:t=P:problem=kreska pseudotaktowa	!
2D/	Tu
=62-	=62-
1G	so-
2C,</	-lus
2c\	al-
=63-	=63-
2.G/	-tiſ-
4G/	-si-
!LO:TX:t=P:problem=kreska pseudotaktowa	!
1d,>	-m(us)
=64-	=64-
2G/	Je-
2A/	-su
1B-	x-
=65-	=65-
!LO:TX:t=P:problem=kreska pseudotaktowa	!
1A	-te
2r	.
2d\	Cum
=66-	=66-
4c\	S(a)n-
4B-\	-cto
4A/	Sp(i)-
4A/	-ri-
!LO:TX:t=P:problem=kreska pseudotaktowa	!
1G,<	-tu
=67-	=67-
1r	.
4r	.
4G/	in
!LO:TX:t=P:problem=kreska pseudotaktowa	!
2B-\	glo-
=68-	=68-
4F/	-(ri)-
4G/	-a
!LO:TX:t=P:problem=kreska pseudotaktowa	!
2D/	De-
4G,</	-i
4G/	in
2d\	glo-
=69-	=69-
4G/	-(ri)-
4G/	-a
2A\	De-
!LO:TX:t=P:problem=kreska pseudotaktowa	!
1D	-i
=70-	=70-
2F/	Pa-
2B-\	-tris
2d\	a-
2D/	-men
=71-	=71-
!LO:TX:t=P:problem=kreska pseudotaktowa	!
0G;>	.
=||	=||
*-	*-
!!!RDF**kern: > = above
!!!RDF**kern: < = below
!!!EED: Antoni Szymański
!!!EEV: 2021-07-31
!!!ENC: Anastazja Marusiak
!!!END: 2021-07-04
